packages/ffe-icons/icons/filled/sm/mosque.svg

<svg xmlns="http://www.w3.org/2000/svg" height="20" viewBox="0 -960 960 960" width="20"><path d="M316.848-610.153q-24.847 0-45.847-19-21-19.001-21-42.847 0-42.307 20.846-78.692 20.846-36.384 56.923-57.846l120.385-72.846q14.999-8.538 31.845-8.538 16.846 0 31.845 8.538l120.385 72.846q36.077 21.462 56.923 57.846 20.846 36.385 20.846 78.692 0 24.846-21 43.347-21 18.5-46.847 18.5H316.848ZM58.001-217.999V-639.77q-18-8.846-27-22.999-9-14.154-9-33.231 0-18.307 16.769-48.499Q55.539-774.691 84-801.768q28.461 27.077 45.23 57.269 16.769 30.192 16.769 48.499 0 19.077-9 33.231-9 14.153-27 22.999v217.771h92.002V-504q0-29.231 20.807-47.346 20.808-18.115 48.116-15.423h418.152q27.308-2.692 48.116 15.423 20.807 18.115 20.807 47.346v82.001h92.002V-639.77q-18-8.846-27-22.999-9-14.154-9-33.231 0-18.307 16.269-48.499 16.269-30.192 45.73-57.269 28.461 27.077 45.23 57.269 16.769 30.192 16.769 48.499 0 19.077-9.5 33.231-9.5 14.153-26.5 22.999v421.771q0 26.538-18.73 45.268t-45.268 18.73H602.769q-13.462 0-22.808-9.346t-9.346-22.807V-288q0-37.692-26.461-64.154-26.462-26.461-64.154-26.461-37.692 0-64.154 26.461-26.461 26.462-26.461 64.154v101.846q0 13.461-9.346 22.807-9.346 9.346-22.808 9.346H121.999q-26.538 0-45.268-18.73t-18.73-45.268Z"/></svg>

<svg xmlns="http://www.w3.org/2000/svg" height="20" viewBox="0 -960 960 960" width="20"><path d="M316.85-610.15q-24.85 0-45.85-19T250-672q0-42.31 20.85-78.69 20.84-36.39 56.92-57.85l120.38-72.84q15-8.54 31.85-8.54t31.85 8.54l120.38 72.84q36.08 21.46 56.92 57.85Q710-714.31 710-672q0 24.85-21 43.35t-46.85 18.5h-325.3ZM58-218v-421.77q-18-8.85-27-23T22-696q0-18.31 16.77-48.5T84-801.77q28.46 27.08 45.23 57.27Q146-714.31 146-696q0 19.08-9 33.23-9 14.15-27 23V-422h92v-82q0-29.23 20.81-47.35 20.81-18.11 48.11-15.42h418.16q27.3-2.69 48.11 15.42Q758-533.23 758-504v82h92v-217.77q-18-8.85-27-23T814-696q0-18.31 16.27-48.5T876-801.77q28.46 27.08 45.23 57.27Q938-714.31 938-696q0 19.08-9.5 33.23-9.5 14.15-26.5 23V-218q0 26.54-18.73 45.27Q864.54-154 838-154H602.77q-13.46 0-22.81-9.35-9.35-9.34-9.35-22.8V-288q0-37.69-26.46-64.15-26.46-26.46-64.15-26.46-37.69 0-64.15 26.46-26.46 26.46-26.46 64.15v101.85q0 13.46-9.35 22.8-9.35 9.35-22.81 9.35H122q-26.54 0-45.27-18.73Q58-191.46 58-218Z"/></svg>
